X:37
T:Goodbye, Fare-Ye-Well (a)
M:3/4
L:1/4
K:A
A|\
(DF)A|(AG)A|(BA)=3DG|F2 A|
A=3DG F|=3DG2 B| BA =3DG|F2 A|
A2  A|(AG)A|(Bc) B|A2 d|
c2  A|B2  G|(Ac) B|A2 ||
